X: 8
I: linebreak $
T: Candida Luna
P: AA BB CC x 3
M: 3/4
L: 1/8
K: C major
P: A
"C"c2 | "G"B3AB2 | "Em"G3AB2 | "F"A3GA2 | "F"A3B"C"c2 | "G"B4"F"A2 | "F"A4"G"B2 | 
"C"c4c2 | "C"c4 :: 
P: B
"C"c2 | "G"B3AB2 | "C"G3AB2 | "F"A3GA2 | "Dm"F3GA2 | 
"C"G3FG2 | "C"E3FG2 | "Dm"F3EF2 | "Bb"D3EF2 | "C"E3DE2 | "C"E4"G"D2 | 
"Am"E3DE2 | "Am"E3DC2 | "G"D4"F"C2 | "F"C4"G"D2 | "C"E4E2 | "C"E4 :: 
P: C
DE | 
"Bb"F3EF2 | "Bb"D3EF2 | "Am"E3DE2 | "Am"E3DC2 | "G"D4"F"C2 | "F"C4"G"D2 | 
"C"E4E2 | "C"E4 :| 

